img/slide12/2003.svg

<svg height="230" viewBox="0 0 72 230" width="72" xmlns="http://www.w3.org/2000/svg"><path d="m-32.6403128 150.15v-12.65h-25.627715v-.25l13.2384883-13.7c4.3961772-4.566666 7.435201-8.616666 9.1170721-12.15s2.5228062-7.366666 2.5228062-11.5c0-3.1666664-.607805-6.0833336-1.8234144-8.75-1.2156093-2.6666664-2.8558502-4.875-4.9207211-6.625s-4.4378074-3.1083336-7.1188097-4.075-5.5035479-1.45-8.4676369-1.45c-5.56183 0-10.2743993 1.2083336-14.1377063 3.625s-6.9106572 5.6416664-9.1420504 9.675l9.9913119 7.15c3.0640021-5.0666664 7.143788-7.6 12.2393571-7.6 1.7984361 0 3.4053724.4166664 4.820808 1.25s2.5228062 1.975 3.3221112 3.425c.7993049 1.45 1.1989574 3.075 1.1989574 4.875 0 2.633334-.7660003 5.191666-2.2980017 7.675s-3.8966117 5.425-7.0938315 8.825l-21.880973 23.1.1498696 9.15zm36.76802783.85c5.59513467 0 10.47422557-1.508334 14.63727197-4.525 4.1630463-3.016666 7.3352879-7.225 9.5167246-12.625 2.1814366-5.4 3.2721546-11.683334 3.2721546-18.85 0-5.6-.6660872-10.666666-1.9982624-15.2-1.3321752-4.5333336-3.1972198-8.3166664-5.5951346-11.35-2.3979149-3.0333336-5.287069-5.3666664-8.6674631-7s-7.10215782-2.45-11.16529107-2.45c-4.196351 0-8.00970145.8666664-11.44005213 2.6-3.4303507 1.7333336-6.3111784 4.175-8.6424848 7.325s-4.1297425 6.95-5.3953084 11.4-1.8983493 9.341666-1.8983493 14.675c0 5.6.6660872 10.666666 1.9982624 15.2s3.1972198 8.316666 5.5951347 11.35c2.3979148 3.033334 5.2787433 5.366666 8.64248476 7 3.36374142 1.633334 7.07717952 2.45 11.14031277 2.45zm.04995656-12.95c-2.73095884 0-5.09556907-.933334-7.09383145-2.8s-3.5136111-4.533334-4.54604692-8c-1.03243581-3.466666-1.54865334-7.55-1.54865334-12.25 0-7.366666 1.17397915-13.05 3.52193744-17.05 2.3479583-4 5.57015639-6 9.66659427-6 4.12974251 0 7.35194061 2.05 9.66659431 6.15 2.3146536 4.1 3.4719808 9.733334 3.4719808 16.9 0 7.366666-1.1573272 13.05-3.4719808 17.05-2.3146537 4-5.5368518 6-9.66659431 6zm64.54387491 12.95c5.5951346 0 10.4742255-1.508334 14.6372719-4.525s7.3352879-7.225 9.5167246-12.625 3.2721547-11.683334 3.2721547-18.85c0-5.6-.6660873-10.666666-1.9982624-15.2-1.3321752-4.5333336-3.1972198-8.3166664-5.5951347-11.35-2.3979148-3.0333336-5.287069-5.3666664-8.6674631-7s-7.1021578-2.45-11.165291-2.45c-4.196351 0-8.0097015.8666664-11.4400521 2.6-3.4303507 1.7333336-6.3111785 4.175-8.6424848 7.325-2.3313064 3.15-4.1297426 6.95-5.3953085 11.4s-1.8983492 9.341666-1.8983492 14.675c0 5.6.6660872 10.666666 1.9982623 15.2 1.3321752 4.533334 3.1972199 8.316666 5.5951347 11.35 2.3979149 3.033334 5.2787434 5.366666 8.6424848 7s7.0771795 2.45 11.1403128 2.45zm.0499565-12.95c-2.7309588 0-5.095569-.933334-7.0938314-2.8s-3.5136111-4.533334-4.5460469-8-1.5486534-7.55-1.5486534-12.25c0-7.366666 1.1739792-13.05 3.5219375-17.05s5.5701564-6 9.6665942-6c4.1297425 0 7.3519406 2.05 9.6665943 6.15s3.4719809 9.733334 3.4719809 16.9c0 7.366666-1.1573272 13.05-3.4719809 17.05s-5.5368518 6-9.6665943 6zm58.499131 12.95c4.529395 0 8.592528-.816666 12.189401-2.45 3.596872-1.633334 6.419418-3.966666 8.467637-7s3.072328-6.533334 3.072328-10.5c0-4-.982479-7.466666-2.947437-10.4s-4.679265-5.2-8.142919-6.8v-.25c2.864176-1.7 5.087243-3.916666 6.6692-6.65 1.581958-2.733334 2.372937-5.783334 2.372937-9.15 0-2.9333336-.591152-5.6-1.773458-8-1.182305-2.4-2.789241-4.3833336-4.820808-5.95s-4.412829-2.7666664-7.143788-3.6-5.678396-1.25-8.842311-1.25c-5.062264 0-9.525051 1.15-13.388358 3.45s-6.610918 5.3166664-8.242832 9.05l11.090356 5.95c2.231393-3.9333336 5.645091-5.9 10.241095-5.9 2.631046 0 4.83746.8 6.619244 2.4s2.672676 3.65 2.672676 6.15c0 2.433334-.766 4.425-2.298002 5.975-1.532001 1.55-3.796698 2.325-6.794092 2.325h-6.194613v11.3h5.045612c3.696786 0 6.552636.891666 8.56755 2.675s3.022372 4.025 3.022372 6.725c0 2.833334-1.007458 5.1-3.022372 6.8s-4.471112 2.55-7.368592 2.55c-6.094701 0-10.141182-2.65-12.139444-7.95l-12.089488 5.05c1.798436 4.566666 4.929048 8.283334 9.391833 11.15 4.462786 2.866666 9.724878 4.3 15.786273 4.3z" fill="#fff" transform="matrix(0 -1 1 0 -79 151)"/></svg>

<?xml version="1.0" encoding="UTF-8"?>
<svg width="72px" height="230px" viewBox="0 0 72 230" version="1.1" xmlns="http://www.w3.org/2000/svg" xmlns:xlink="http://www.w3.org/1999/xlink">
    <title>2003</title>
    <g id="2003" stroke="none" stroke-width="1" fill="none" fill-rule="evenodd">
        <path d="M-32.6403128,150.15 L-32.6403128,137.5 L-58.2680278,137.5 L-58.2680278,137.25 L-45.0295395,123.55 C-40.6333623,118.983334 -37.5943385,114.933334 -35.9124674,111.4 C-34.2305963,107.866666 -33.3896612,104.033334 -33.3896612,99.9 C-33.3896612,96.7333336 -33.9974662,93.8166664 -35.2130756,91.15 C-36.4286849,88.4833336 -38.0689258,86.275 -40.1337967,84.525 C-42.1986676,82.775 -44.5716041,81.4166664 -47.2526064,80.45 C-49.9336087,79.4833336 -52.7561543,79 -55.7202433,79 C-61.2820733,79 -65.9946426,80.2083336 -69.8579496,82.625 C-73.7212566,85.0416664 -76.7686068,88.2666664 -79,92.3 L-69.0086881,99.45 C-65.944686,94.3833336 -61.8649001,91.85 -56.769331,91.85 C-54.9708949,91.85 -53.3639586,92.2666664 -51.948523,93.1 C-50.5330874,93.9333336 -49.4257168,95.075 -48.6264118,96.525 C-47.8271069,97.975 -47.4274544,99.6 -47.4274544,101.4 C-47.4274544,104.033334 -48.1934547,106.591666 -49.7254561,109.075 C-51.2574575,111.558334 -53.6220678,114.5 -56.8192876,117.9 L-78.7002606,141 L-78.550391,150.15 L-32.6403128,150.15 Z M4.12771503,151 C9.7228497,151 14.6019406,149.491666 18.764987,146.475 C22.9280333,143.458334 26.1002749,139.25 28.2817116,133.85 C30.4631482,128.45 31.5538662,122.166666 31.5538662,115 C31.5538662,109.4 30.887779,104.333334 29.5556038,99.8 C28.2234286,95.2666664 26.358384,91.4833336 23.9604692,88.45 C21.5625543,85.4166664 18.6734002,83.0833336 15.2930061,81.45 C11.912612,79.8166664 8.19084828,79 4.12771503,79 C-0.0686359687,79 -3.88198642,79.8666664 -7.3123371,81.6 C-10.7426878,83.3333336 -13.6235155,85.775 -15.9548219,88.925 C-18.2861283,92.075 -20.0845644,95.875 -21.3501303,100.325 C-22.6156962,104.775 -23.2484796,109.666666 -23.2484796,115 C-23.2484796,120.6 -22.5823924,125.666666 -21.2502172,130.2 C-19.918042,134.733334 -18.0529974,138.516666 -15.6550825,141.55 C-13.2571677,144.583334 -10.3763392,146.916666 -7.01259774,148.55 C-3.64885632,150.183334 0.0645817774,151 4.12771503,151 Z M4.17767159,138.05 C1.44671275,138.05 -0.91789748,137.116666 -2.91615986,135.25 C-4.91442224,133.383334 -6.42977096,130.716666 -7.46220678,127.25 C-8.49464259,123.783334 -9.01086012,119.7 -9.01086012,115 C-9.01086012,107.633334 -7.83688097,101.95 -5.48892268,97.95 C-3.14096438,93.95 0.0812337098,91.95 4.17767159,91.95 C8.3074141,91.95 11.5296122,94 13.8442659,98.1 C16.1589195,102.2 17.3162467,107.833334 17.3162467,115 C17.3162467,122.366666 16.1589195,128.05 13.8442659,132.05 C11.5296122,136.05 8.3074141,138.05 4.17767159,138.05 Z M68.7215465,151 C74.3166811,151 79.195772,149.491666 83.3588184,146.475 C87.5218648,143.458334 90.6941063,139.25 92.875543,133.85 C95.0569797,128.45 96.1476977,122.166666 96.1476977,115 C96.1476977,109.4 95.4816104,104.333334 94.1494353,99.8 C92.8172601,95.2666664 90.9522155,91.4833336 88.5543006,88.45 C86.1563858,85.4166664 83.2672316,83.0833336 79.8868375,81.45 C76.5064434,79.8166664 72.7846797,79 68.7215465,79 C64.5251955,79 60.711845,79.8666664 57.2814944,81.6 C53.8511437,83.3333336 50.9703159,85.775 48.6390096,88.925 C46.3077032,92.075 44.509267,95.875 43.2437011,100.325 C41.9781352,104.775 41.3453519,109.666666 41.3453519,115 C41.3453519,120.6 42.0114391,125.666666 43.3436142,130.2 C44.6757894,134.733334 46.5408341,138.516666 48.9387489,141.55 C51.3366638,144.583334 54.2174923,146.916666 57.5812337,148.55 C60.9449751,150.183334 64.6584132,151 68.7215465,151 Z M68.771503,138.05 C66.0405442,138.05 63.675934,137.116666 61.6776716,135.25 C59.6794092,133.383334 58.1640605,130.716666 57.1316247,127.25 C56.0991889,123.783334 55.5829713,119.7 55.5829713,115 C55.5829713,107.633334 56.7569505,101.95 59.1049088,97.95 C61.4528671,93.95 64.6750652,91.95 68.771503,91.95 C72.9012455,91.95 76.1234436,94 78.4380973,98.1 C80.752751,102.2 81.9100782,107.833334 81.9100782,115 C81.9100782,122.366666 80.752751,128.05 78.4380973,132.05 C76.1234436,136.05 72.9012455,138.05 68.771503,138.05 Z M127.270634,151 C131.800029,151 135.863162,150.183334 139.460035,148.55 C143.056907,146.916666 145.879453,144.583334 147.927672,141.55 C149.975891,138.516666 151,135.016666 151,131.05 C151,127.05 150.017521,123.583334 148.052563,120.65 C146.087605,117.716666 143.373298,115.45 139.909644,113.85 L139.909644,113.6 C142.77382,111.9 144.996887,109.683334 146.578844,106.95 C148.160802,104.216666 148.951781,101.166666 148.951781,97.8 C148.951781,94.8666664 148.360629,92.2 147.178323,89.8 C145.996018,87.4 144.389082,85.4166664 142.357515,83.85 C140.325948,82.2833336 137.944686,81.0833336 135.213727,80.25 C132.482768,79.4166664 129.535331,79 126.371416,79 C121.309152,79 116.846365,80.15 112.983058,82.45 C109.119751,84.75 106.37214,87.7666664 104.740226,91.5 L115.830582,97.45 C118.061975,93.5166664 121.475673,91.55 126.071677,91.55 C128.702723,91.55 130.909137,92.35 132.690921,93.95 C134.472705,95.55 135.363597,97.6 135.363597,100.1 C135.363597,102.533334 134.597597,104.525 133.065595,106.075 C131.533594,107.625 129.268897,108.4 126.271503,108.4 L120.07689,108.4 L120.07689,119.7 L125.122502,119.7 C128.819288,119.7 131.675138,120.591666 133.690052,122.375 C135.704966,124.158334 136.712424,126.4 136.712424,129.1 C136.712424,131.933334 135.704966,134.2 133.690052,135.9 C131.675138,137.6 129.21894,138.45 126.32146,138.45 C120.226759,138.45 116.180278,135.8 114.182016,130.5 L102.092528,135.55 C103.890964,140.116666 107.021576,143.833334 111.484361,146.7 C115.947147,149.566666 121.209239,151 127.270634,151 Z" fill="#FFFFFF" fill-rule="nonzero" transform="translate(36.000000, 115.000000) rotate(-90.000000) translate(-36.000000, -115.000000) "></path>
    </g>
</svg>
